X:1
T: The Whirligig's Last Bow
N:
C:Pat Shaw
S:aka "The Whirligig's Maggot"
A:
O:
R:
M:4/4
K:G
I:speed 200
%W: A1
% voice 1 (1 lines, 28 notes)
K:G
M:4/4
L:1/16
E4 |A6 B2 c4 c4 |B6 A2 G4 G4 |A6 B2 c4 d4 |e12 e4 |f6 e2 d4 f4 |g8 e4 c4 |B6 A2 G4 B4 |A12 E4 |
%W: A2
% voice 1 (1 lines, 27 notes)
A6 B2 c4 c4 |B6 A2 G4 G4 |A6 B2 c4 d4 |e12 e4 |f6 e2 d4 f4 |g8 e4 c4 |B6 A2 G4 B4 |A12 e4 |
%W: B
% voice 1 (1 lines, 29 notes)
a8 a4 a4 |g4 e8 c4 |d6 c2 d4 d4 |e12 e4 |A6 B2 c4 c4 |d4 B8 g4 |a6 g2 f4 d4 |e6 d2 c2 d2 c2 B2 |
%W:
% voice 1 (1 lines, 31 notes)
A6 B2 c4 c4 |d4 B8 G4 |c6 d2 e4 f4 |G8 A4 B4 |c6 d2 e4 d4 |c2 d2 c2 B2 A2 B2 A2 G2 |E4 c8 B2 G2 |A12 ||
